X:4
T:dr Melchtaler  C 2+
S:Hans Durrer-von Flüeh  (25.6.1921-16.8.2002)
S:Dirigenten-Notiz  Edi Gasser
%C:Unterwalden (CH)
%%partsbox
M:2/4
R:Naturjodel
L:1/8
K:C
[P:A] C>E | Ge cA | Gz C>E | Ge cA | G2ec | df BA | Gg fd | ce cA | 
G2 C>E | Ge cA | Gz C>E | Ge cA | G2ec | df BA | Gg fd | !fermata!(c4 | c)z || 
L:1/8
M:2/4
[P:B] ec | df BA | Gg fd | ce cA | Gg ec | df BA | Gg fd | ce cA | 
G2ec | df BA | Gg fd | ce cA | Gg ec | df BA | Gg fd | (c4 | c)z || 
M:2/4
[P:C] Ge | c2Ge | cG ec | Bd GB | Fz Gf | d2Gf | dG fB | ce Gc | 
Ez Ge/2d/2 | c2Ge/2d/2 | cG ec | Bd GB | Fz Gf/2e/2 | d2 Gf/2e/2 | dG fB | c2de | 
c2Ge | c2 Ge | cG ec | Bd GB | Fz Gf | d2Gf | dG fB | ce Gc | 
Ez Ge/2d/2 | c2 Ge/2d/2 | cG ec | Bd GB | Fz Gf/2e/2 | d2 Gf/2e/2 | dG fB | c2ge | !fermata!c2 |]
W.Ge/2d/2 | c2 Ge/2d/2 | cG ec | Bd GB | Fz Gf/2e/2 | d2 Gf/2e/2 | dG fB | c2ge | !fermata!c2 |]
W:
W:Reihenfolge: A-B-C
%W:Musik: Hans Durrer-von Flüeh, bearbeitet: Karl Anderhalden
%W:UJV-Naturjodelsammlung: Code-Nr: 11-02
%W:http://www.naturjodler.ch/code 11.htm  (with AUDIO)
%May 7, 2018

